X:1
T:Oh Hanukkah
M:4/4
L:1/4
Q:1/4=200
K:Bm
%%MIDI program 1 71 % Clarinet
B, || F F F F | B F F F | F2 E D | E2 D2 |
w:Oh Ha-nuk-kah, oh Ha-nuk-kah! Come light the me-no-rah.
F2 F F | B2 F F | F2 E D | E2 D2 ||
w:Let's have a par-ty, We'll all dance the Ho-rah.
D E F E | D2 D D | E2 D C | D4 |
w:Ga-ther round the ta-ble, We'll give you a treat.
(DE) F E | D2 D D | E2 D C | B,3 B, ||
w:Drei_dels to play with, and lat-kes to eat. And
F2 F2-|F2 B,2 | F2 F2-|F2 B,2 | F2 F F| E2 G2 | F4-|F4 |
w:while we_ are play-ing,_ The can-dles are bur-ning low._
F2 F F | G2 F E | F2 F F | G2 F E | D2 D D|E2 D E |F4-|F4 |
w:One for each night, They will shed a sweet light, To re-mind us of days long a-go...
F2 F F | G2 F E | F2 F F | G2 F E | D2 D D|E2 D C |B,4||
w:One for each night, They will shed a sweet light, To re-mind us of days long a-go.

